X:1026
T:Dutchess of Gordon's Reel.
M:C
L:1/8
Q:1/2=104
I: || || || ||
Z:Jack Campin * www.campin.me.uk * 2009
K:D
z|d>AF>D A/A/A A2 |d/d/d f>d e>E```EA |FE`DF  A/A/A A2 |f>b``````a>f d/d/d d :|
a|f>da>d b>d```a>d|f>d```a>f e/e/e e>a|f>da>d b>d```a>d|f>d``````a>f d/d/d d>a|
  f>da>d b>d```a>d|f>d```a>f e/e/e e>f|d>BF>A d>e```f>d|f>b``````a>f d/d/d d2||
  F>DA>D B>D```A>D|F>D```A>F E/E/E E2 |F>DA>D B>D```A>D|d/c/B/c/ dF  D/D/D D2:|
  A>dF>d A>d```F>d|f>e```d>f e/e/e e2 |A>dF>d A>B```d>b|a>d``````a>f d/d/d d2:|
<end>
<start>
